X: 10942
T: COTILLION No. 13. tune 2
C:
%R: reel
B: Elias Howe "The Musician's Companion" Part 1 1842 p.94 #2
S: http://imslp.org/wiki/The_Musician's_Companion_(Howe,_Elias)
Z: 2015 John Chambers <jc:trillian.mit.edu>
M: 2/4
L: 1/16
K: D
% - - - - - - - - - - - - - - - - - - - - - - - - -
A2 |\
dcde fefg | ^gaba =gfed | cBcd efgf | e2a2 A2Bc |\
dcde fefg | ^gaba =gfed | cBge dcBc | (e4 d2) H|]
|:\
e>^de>d e>gf>e | d>cd>c d>fe>d | c>Bc>d e>fg>f | e2a2 A2Bc |\
e>^de>d e>gf>e | d>cd>c d>fe>d | c>Bg>e d>cB>c | (e4 "^D.C."d2) :|
% - - - - - - - - - - Dance description - - - - - - - - - -
%%begintext align
%% First 2 forward and back,
%% cross over,
%% chassa de chassa,
%% cross back,
%% balance 4 and turn partners,
%% next 2 forward, &c.
%%endtext
%- - - - - - - - - - - - - - - - - - - - - - - - -
%%sep 1 1 300
